Numix-GalliumOS/64/mimetypes/application-x-jar.svg

<svg xmlns="http://www.w3.org/2000/svg" xmlns:xlink="http://www.w3.org/1999/xlink" width="64px" height="64px" viewBox="0 0 64 64" version="1.1">
<g id="surface1">
<path style=" stroke:none;fill-rule:nonzero;fill:rgb(90.196078%,43.529412%,0%);fill-opacity:1;" d="M 10.671875 0 C 9.296875 0 8 1.355469 8 2.789062 L 8 61.210938 C 8 62.566406 9.375 64 10.671875 64 L 53.328125 64 C 54.625 64 56 62.566406 56 61.210938 L 56 18 L 38 0 Z M 10.671875 0 "/>
<path style=" stroke:none;fill-rule:nonzero;fill:rgb(0%,0%,0%);fill-opacity:0.196078;" d="M 42 18 L 56 32 L 56 18 Z M 42 18 "/>
<path style=" stroke:none;fill-rule:nonzero;fill:rgb(100%,100%,100%);fill-opacity:0.392157;" d="M 38 0 L 55.984375 18 L 40.757812 18 C 39.410156 18 38 16.574219 38 15.226562 Z M 38 0 "/>
<path style=" stroke:none;fill-rule:evenodd;fill:rgb(100%,100%,100%);fill-opacity:1;" d="M 28.679688 38.5625 C 28.679688 38.5625 27.710938 39.09375 29.367188 39.273438 C 31.375 39.492188 32.398438 39.460938 34.609375 39.0625 C 34.609375 39.0625 35.1875 39.40625 36 39.710938 C 31.046875 41.71875 24.789062 39.59375 28.679688 38.5625 "/>
<path style=" stroke:none;fill-rule:evenodd;fill:rgb(100%,100%,100%);fill-opacity:1;" d="M 28.070312 35.929688 C 28.070312 35.929688 26.984375 36.695312 28.640625 36.859375 C 30.789062 37.070312 32.476562 37.085938 35.40625 36.546875 C 35.40625 36.546875 35.8125 36.9375 36.445312 37.148438 C 30.460938 38.8125 23.78125 37.28125 28.070312 35.929688 "/>
<path style=" stroke:none;fill-rule:evenodd;fill:rgb(100%,100%,100%);fill-opacity:1;" d="M 33.179688 31.476562 C 34.398438 32.804688 32.851562 34.007812 32.851562 34.007812 C 32.851562 34.007812 35.953125 32.492188 34.53125 30.59375 C 33.203125 28.820312 32.179688 27.9375 37.703125 24.898438 C 37.703125 24.898438 29.039062 26.953125 33.179688 31.476562 "/>
<path style=" stroke:none;fill-rule:evenodd;fill:rgb(100%,100%,100%);fill-opacity:1;" d="M 39.726562 40.507812 C 39.726562 40.507812 40.445312 41.0625 38.9375 41.492188 C 36.078125 42.320312 27.039062 42.5625 24.523438 41.53125 C 23.625 41.15625 25.3125 40.640625 25.851562 40.53125 C 26.40625 40.414062 26.71875 40.4375 26.71875 40.4375 C 25.71875 39.765625 20.226562 41.757812 23.9375 42.328125 C 34.039062 43.875 42.351562 41.625 39.726562 40.507812 "/>
<path style=" stroke:none;fill-rule:evenodd;fill:rgb(100%,100%,100%);fill-opacity:1;" d="M 29.140625 33.210938 C 29.140625 33.210938 24.539062 34.25 27.515625 34.625 C 28.765625 34.78125 31.265625 34.742188 33.601562 34.5625 C 35.5 34.40625 37.414062 34.085938 37.414062 34.085938 C 37.414062 34.085938 36.742188 34.359375 36.257812 34.671875 C 31.585938 35.835938 22.5625 35.296875 25.15625 34.101562 C 27.359375 33.09375 29.140625 33.210938 29.140625 33.210938 "/>
<path style=" stroke:none;fill-rule:evenodd;fill:rgb(100%,100%,100%);fill-opacity:1;" d="M 37.390625 37.585938 C 42.140625 35.242188 39.945312 32.992188 38.414062 33.296875 C 38.039062 33.375 37.875 33.4375 37.875 33.4375 C 37.875 33.4375 38.007812 33.226562 38.28125 33.140625 C 41.3125 32.132812 43.640625 36.125 37.296875 37.703125 C 37.296875 37.703125 37.375 37.640625 37.390625 37.585938 "/>
<path style=" stroke:none;fill-rule:evenodd;fill:rgb(100%,100%,100%);fill-opacity:1;" d="M 34.53125 20 C 34.53125 20 37.164062 22.492188 32.039062 26.328125 C 27.929688 29.40625 31.101562 31.164062 32.039062 33.164062 C 29.640625 31.117188 27.875 29.304688 29.054688 27.625 C 30.789062 25.15625 35.59375 23.960938 34.53125 20 "/>
<path style=" stroke:none;fill-rule:evenodd;fill:rgb(100%,100%,100%);fill-opacity:1;" d="M 29.609375 43.921875 C 34.164062 44.203125 41.164062 43.773438 41.335938 41.726562 C 41.335938 41.726562 41.015625 42.5 37.5625 43.117188 C 33.671875 43.8125 28.875 43.726562 26.03125 43.289062 C 26.03125 43.28125 26.617188 43.742188 29.609375 43.921875 "/>
<path style=" stroke:none;fill-rule:nonzero;fill:rgb(0%,0%,0%);fill-opacity:0.196078;" d="M 8 48 L 8 61.335938 C 8 62.632812 9.375 64 10.664062 64 L 53.335938 64 C 54.625 64 56 62.632812 56 61.335938 L 56 48 Z M 8 48 "/>
<path style=" stroke:none;fill-rule:nonzero;fill:rgb(100%,100%,100%);fill-opacity:1;" d="M 25.898438 58.222656 C 25.898438 58.765625 25.820312 59.285156 25.660156 59.769531 C 25.511719 60.246094 25.257812 60.671875 24.890625 61.039062 C 24.550781 61.402344 24.09375 61.691406 23.53125 61.914062 C 22.96875 62.117188 22.289062 62.222656 21.480469 62.222656 C 20.636719 62.222656 19.941406 62.128906 19.378906 61.929688 C 18.816406 61.734375 18.339844 61.496094 17.949219 61.214844 L 18.894531 59.4375 C 19.234375 59.632812 19.601562 59.820312 20 60 C 20.417969 60.1875 20.832031 60.273438 21.269531 60.273438 C 21.90625 60.273438 22.425781 60.128906 22.808594 59.820312 C 23.207031 59.507812 23.410156 58.929688 23.410156 58.09375 L 23.410156 52.589844 L 19.257812 52.589844 L 19.257812 50.734375 L 25.898438 50.734375 L 25.898438 58.222656 "/>
<path style=" stroke:none;fill-rule:nonzero;fill:rgb(100%,100%,100%);fill-opacity:1;" d="M 34.355469 61.984375 L 33.765625 59.386719 L 30.457031 59.386719 L 29.894531 61.984375 L 27.324219 61.984375 C 27.914062 59.769531 28.507812 57.746094 29.113281 55.933594 C 29.71875 54.101562 30.296875 52.367188 30.855469 50.734375 L 33.546875 50.734375 C 34.132812 52.375 34.71875 54.128906 35.289062 55.984375 C 35.886719 57.832031 36.445312 59.828125 37 61.984375 L 34.355469 61.984375 M 32.140625 52.914062 C 32.003906 53.335938 31.878906 53.746094 31.757812 54.128906 C 31.65625 54.503906 31.546875 54.878906 31.4375 55.261719 C 31.34375 55.617188 31.25 55.992188 31.15625 56.367188 C 31.078125 56.742188 31 57.132812 30.917969 57.53125 L 33.351562 57.53125 C 33.265625 57.132812 33.1875 56.742188 33.101562 56.367188 C 33.027344 55.992188 32.933594 55.617188 32.824219 55.261719 C 32.730469 54.878906 32.625 54.503906 32.507812 54.128906 C 32.398438 53.746094 32.277344 53.335938 32.140625 52.914062 "/>
<path style=" stroke:none;fill-rule:nonzero;fill:rgb(100%,100%,100%);fill-opacity:1;" d="M 41.476562 50.605469 C 42.183594 50.605469 42.828125 50.675781 43.398438 50.820312 C 43.976562 50.964844 44.472656 51.195312 44.886719 51.492188 C 45.304688 51.796875 45.621094 52.1875 45.832031 52.65625 C 46.0625 53.117188 46.171875 53.660156 46.171875 54.289062 C 46.171875 54.945312 46.027344 55.542969 45.730469 56.078125 C 45.433594 56.605469 44.949219 57.011719 44.265625 57.292969 C 44.496094 57.609375 44.734375 57.957031 44.988281 58.347656 C 45.246094 58.722656 45.492188 59.125 45.730469 59.550781 C 45.96875 59.957031 46.199219 60.375 46.410156 60.800781 C 46.640625 61.214844 46.835938 61.609375 46.996094 61.984375 L 44.402344 61.984375 C 44.097656 61.257812 43.738281 60.5625 43.320312 59.890625 C 42.921875 59.21875 42.488281 58.527344 42.019531 57.839844 L 40.734375 57.839844 L 40.734375 61.984375 L 38.269531 61.984375 L 38.269531 50.894531 C 38.507812 50.84375 38.761719 50.800781 39.050781 50.769531 C 39.339844 50.71875 39.636719 50.691406 39.925781 50.675781 C 40.226562 50.648438 40.503906 50.632812 40.769531 50.625 C 41.042969 50.605469 41.273438 50.605469 41.476562 50.605469 M 43.664062 54.273438 C 43.664062 53.679688 43.457031 53.246094 43.058594 52.964844 C 42.660156 52.691406 42.132812 52.546875 41.476562 52.546875 C 41.382812 52.546875 41.273438 52.554688 41.136719 52.5625 C 41 52.5625 40.863281 52.582031 40.734375 52.605469 L 40.734375 55.984375 L 41.273438 55.984375 C 42.113281 55.984375 42.726562 55.839844 43.101562 55.550781 C 43.476562 55.242188 43.664062 54.816406 43.664062 54.273438 "/>
</g>
</svg>

<svg xmlns="http://www.w3.org/2000/svg" viewBox="0 0 64 64">
 <g>
  <path d="m 10.672 0 c -1.375 0 -2.672 1.355 -2.672 2.789 l 0 58.42 c 0 1.355 1.375 2.789 2.672 2.789 l 42.656 0 c 1.297 0 2.672 -1.434 2.672 -2.789 l 0 -43.21 l -18 -18 m -27.328 0" style="fill:#e56f00;fill-opacity:1;stroke:none;fill-rule:nonzero"/>
  <path d="m 42 18 l 14 14 l 0 -14 m -14 0" style="fill:#000;fill-opacity:0.196;stroke:none;fill-rule:nonzero"/>
  <path d="m 38 0 l 17.984 18 l -15.227 0 c -1.348 0 -2.758 -1.426 -2.758 -2.773 m 0 -15.227" style="fill:#fff;fill-opacity:0.392;stroke:none;fill-rule:nonzero"/>
  <path d="m 28.68 38.563 c 0 0 -0.969 0.531 0.688 0.711 c 2.01 0.219 3.03 0.188 5.242 -0.211 c 0 0 0.578 0.344 1.391 0.648 c -4.953 2.01 -11.211 -0.117 -7.32 -1.148" style="fill:#fff;fill-opacity:1;stroke:none;fill-rule:evenodd"/>
  <path d="m 28.07 35.93 c 0 0 -1.086 0.766 0.57 0.93 c 2.148 0.211 3.836 0.227 6.766 -0.313 c 0 0 0.406 0.391 1.039 0.602 c -5.984 1.664 -12.664 0.133 -8.375 -1.219" style="fill:#fff;fill-opacity:1;stroke:none;fill-rule:evenodd"/>
  <path d="m 33.18 31.477 c 1.219 1.328 -0.328 2.531 -0.328 2.531 c 0 0 3.102 -1.516 1.68 -3.414 c -1.328 -1.773 -2.352 -2.656 3.172 -5.695 c 0 0 -8.664 2.055 -4.523 6.578" style="fill:#fff;fill-opacity:1;stroke:none;fill-rule:evenodd"/>
  <path d="m 39.727 40.508 c 0 0 0.719 0.555 -0.789 0.984 c -2.859 0.828 -11.898 1.07 -14.414 0.039 c -0.898 -0.375 0.789 -0.891 1.328 -1 c 0.555 -0.117 0.867 -0.094 0.867 -0.094 c -1 -0.672 -6.492 1.32 -2.781 1.891 c 10.1 1.547 18.414 -0.703 15.789 -1.82" style="fill:#fff;fill-opacity:1;stroke:none;fill-rule:evenodd"/>
  <path d="m 29.14 33.21 c 0 0 -4.602 1.039 -1.625 1.414 c 1.25 0.156 3.75 0.117 6.086 -0.063 c 1.898 -0.156 3.813 -0.477 3.813 -0.477 c 0 0 -0.672 0.273 -1.156 0.586 c -4.672 1.164 -13.695 0.625 -11.1 -0.57 c 2.203 -1.01 3.984 -0.891 3.984 -0.891" style="fill:#fff;fill-opacity:1;stroke:none;fill-rule:evenodd"/>
  <path d="m 37.39 37.586 c 4.75 -2.344 2.555 -4.594 1.023 -4.289 c -0.375 0.078 -0.539 0.141 -0.539 0.141 c 0 0 0.133 -0.211 0.406 -0.297 c 3.03 -1.01 5.359 2.984 -0.984 4.563 c 0 0 0.078 -0.063 0.094 -0.117" style="fill:#fff;fill-opacity:1;stroke:none;fill-rule:evenodd"/>
  <path d="m 34.531 20 c 0 0 2.633 2.492 -2.492 6.328 c -4.109 3.078 -0.938 4.836 0 6.836 c -2.398 -2.047 -4.164 -3.859 -2.984 -5.539 c 1.734 -2.469 6.539 -3.664 5.477 -7.625" style="fill:#fff;fill-opacity:1;stroke:none;fill-rule:evenodd"/>
  <path d="m 29.609 43.922 c 4.555 0.281 11.555 -0.148 11.727 -2.195 c 0 0 -0.32 0.773 -3.773 1.391 c -3.891 0.695 -8.688 0.609 -11.531 0.172 c 0 -0.008 0.586 0.453 3.578 0.633" style="fill:#fff;fill-opacity:1;stroke:none;fill-rule:evenodd"/>
  <path d="m 8 48 l 0 13.336 c 0 1.297 1.375 2.664 2.664 2.664 l 42.672 0 c 1.289 0 2.664 -1.367 2.664 -2.664 l 0 -13.336 m -48 0" style="fill:#000;fill-opacity:0.196;stroke:none;fill-rule:nonzero"/>
  <path d="m 25.898 58.22 c 0 0.543 -0.078 1.063 -0.238 1.547 c -0.148 0.477 -0.402 0.902 -0.77 1.27 c -0.34 0.363 -0.797 0.652 -1.359 0.875 c -0.563 0.203 -1.242 0.309 -2.051 0.309 c -0.844 0 -1.539 -0.094 -2.102 -0.293 c -0.563 -0.195 -1.039 -0.434 -1.43 -0.715 l 0.945 -1.777 c 0.34 0.195 0.707 0.383 1.105 0.563 c 0.418 0.188 0.832 0.273 1.27 0.273 c 0.637 0 1.156 -0.145 1.539 -0.453 c 0.398 -0.313 0.602 -0.891 0.602 -1.727 l 0 -5.504 l -4.152 0 l 0 -1.855 l 6.641 0 l 0 7.488" style="fill:#fff;fill-opacity:1;stroke:none;fill-rule:nonzero"/>
  <path d="m 34.36 61.984 l -0.59 -2.598 l -3.309 0 l -0.563 2.598 l -2.57 0 c 0.59 -2.215 1.184 -4.238 1.789 -6.05 c 0.605 -1.832 1.184 -3.566 1.742 -5.199 l 2.691 0 c 0.586 1.641 1.172 3.395 1.742 5.25 c 0.598 1.848 1.156 3.844 1.711 6 l -2.645 0 m -2.215 -9.07 c -0.137 0.422 -0.262 0.832 -0.383 1.215 c -0.102 0.375 -0.211 0.75 -0.32 1.133 c -0.094 0.355 -0.188 0.73 -0.281 1.105 c -0.078 0.375 -0.156 0.766 -0.238 1.164 l 2.434 0 c -0.086 -0.398 -0.164 -0.789 -0.25 -1.164 c -0.074 -0.375 -0.168 -0.75 -0.277 -1.105 c -0.094 -0.383 -0.199 -0.758 -0.316 -1.133 c -0.109 -0.383 -0.23 -0.793 -0.367 -1.215" style="fill:#fff;fill-opacity:1;stroke:none;fill-rule:nonzero"/>
  <path d="m 41.477 50.605 c 0.707 0 1.352 0.07 1.922 0.215 c 0.578 0.145 1.074 0.375 1.488 0.672 c 0.418 0.305 0.734 0.695 0.945 1.164 c 0.23 0.461 0.34 1 0.34 1.633 c 0 0.656 -0.145 1.254 -0.441 1.789 c -0.297 0.527 -0.781 0.934 -1.465 1.215 c 0.23 0.316 0.469 0.664 0.723 1.055 c 0.258 0.375 0.504 0.777 0.742 1.203 c 0.238 0.406 0.469 0.824 0.68 1.25 c 0.23 0.414 0.426 0.809 0.586 1.184 l -2.594 0 c -0.305 -0.727 -0.664 -1.422 -1.082 -2.094 c -0.398 -0.672 -0.832 -1.363 -1.301 -2.051 l -1.285 0 l 0 4.145 l -2.465 0 l 0 -11.09 c 0.238 -0.051 0.492 -0.094 0.781 -0.125 c 0.289 -0.051 0.586 -0.078 0.875 -0.094 c 0.301 -0.027 0.578 -0.043 0.844 -0.051 c 0.273 -0.02 0.504 -0.02 0.707 -0.02 m 2.188 3.668 c 0 -0.594 -0.207 -1.027 -0.605 -1.309 c -0.398 -0.273 -0.926 -0.418 -1.582 -0.418 c -0.094 0 -0.203 0.008 -0.34 0.016 c -0.137 0 -0.273 0.02 -0.402 0.043 l 0 3.379 l 0.539 0 c 0.84 0 1.453 -0.145 1.828 -0.434 c 0.375 -0.309 0.563 -0.734 0.563 -1.277" style="fill:#fff;fill-opacity:1;stroke:none;fill-rule:nonzero"/>
 </g>
</svg>
